X:1
T:05. Bird In Flight
T:05. Bird In Flight
T:For Children, Sz.42 
T:Book 2 (after Slovakian Folksongs)
T:Béla Bartók
%%score { 1 | 2 }
L:1/8
Q:1/4=115
M:3/4
K:C
V:1 treble nm="Piano" snm="Pno."
V:2 bass 
V:1
"^Andante molto""^(Tema)"!<(! (G2 G2 A2 | B4 ^c2!<)! | d4) c2 | B4 z2 |!<(! (G2 G2 A2 | %5
 B4 ^c2!<)! | d4 c2 | B4) z2 |!>(! (e2 e2 !tenuto!e2 | d4 B2)!>)! |!>(! (d2 c2 d2 | c4!>)! A2) | %12
!>(! (B4 A2 | G4)!>)! z2 |!p! (!tenuto!e2!>(! !tenuto!e2 !tenuto!e2 | d4!>)! B2) |!>(! (d2 c2 d2 | %17
 c4 A2)!>)! |[Q:1/4=105]"^rit." (.B2 z2 .A2 | .G2) z2 z2 | %20
"^(I. var.)"[Q:1/4=115]"^a tempo"!<(! z6 | (g2 ^f2 e2 | ^f2!<)!!>(! d4- | d2 e2 a2!>)! | %24
!<(! b2) z2 z2 | (g2 ^f2 e2 | ^f2!<)!!>(! d4- | d2 e2 a2)!>)! |!mp!!>(! (b2 g4- | g2 ^f2!>)! b2) | %30
!>(! (^g2 ^f4- | f2 e2 a2)!>)! | z2 .d2 (!>![c^f]2- | [cf]2 [Bg]2) z2 | z2 (b2 g2- | g2 ^f2 b2) | %36
 ^f2 (^g2 f2- | f2 e2 a2) | z2[Q:1/4=105]"^rit." .d2 (!>![c^f]2- | [cf]2 [Bg]2) z2 || %40
"^(II. var.)"[Q:1/4=115]"^a tempo" z6 | z6 | z6 | z6 |!mp! (G2!<(! G2 A2 | B4 ^c2!<)! |!>(! d4 c2 | %47
 B4)!>)! z2 |!<(! (G2 G2 A2 | B4!<)! ^c2 |!>(! d4 c2 | B4)!>)! z2 | %52
!mf!!<(! !tenuto![Ge]2 !tenuto![Ge]2 !tenuto![Ae]2!<)! |!>(! ([Ad]4 [GB]2)!>)! | %54
!<(! !tenuto![Gd]2 !tenuto![Gc]2 !tenuto![Gd]2!<)! |!>(! [G-c]4 [GA]2!>)! | ([GB]4 [^FA]2) | %57
 G2 z2 z2 |!p!!<(! !tenuto![Ge]2 !tenuto![Ge]2 !tenuto![Ae]2!<)! |!>(! ([Ad]4 [GB]2)!>)! | %60
 !tenuto![Gd]2 !tenuto![Gc]2 !tenuto![Gd]2 |!>(! ([Gc]4 [GA]2)!>)! | %62
[Q:1/4=75]"_poco rit." ([GB]4 [^FA]2) | G2 z2 z2 || %64
[M:2/4]!f![Q:1/4=125]"^L'istesso tempo""^(III. var.)"[Q:1/4=38]!<(! !tenuto!G2 .G.[GA] | %65
 !tenuto![GB]2 !tenuto![G^c]2!<)! |!>(! !tenuto![Ad]2 [Ac]2 | !tenuto![GB]2!>)! z2 | %68
 !tenuto!G2 .G.[GA] | !tenuto![GB]2 !tenuto![G^c]2 | !tenuto![^Fd]2 !tenuto![Fc]2 | %71
 !tenuto![GB]2 z2 | !tenuto![ce]2!f! .[ce].[ce] | [Bd]2 !tenuto!B2 | !tenuto![Bd]2 .[Bc].[Bd] | %75
 [Ac]2 !tenuto![^FA]2 | !tenuto![^FB]2 !tenuto![FA]2 | !tenuto![DG]2 z2 | %78
 !tenuto![ce]2 .[ce].[ce] | [cd]2 !tenuto!B2 | !tenuto![Bd]2 .[Bc].[Bd] | %81
 !tenuto![Bc]2 !tenuto![^FA]2 | [^FB]4 | [^FA]4 | C4 |] %85
V:2
!p! (B,2 G,2 C2 | D2 G,2 E2 |!>(! ^F2 D2 F2 | G2!>)! D2 G,2) | (B,2 G,2 C2 | D2 G,2 E2 | %6
!>(! ^F2 D2 F2 | G2!>)! D2 G,2) | (^F4 C2 | B,2 E2 G2) | (^G,4 F2 | A,2 C2 _E2) | %12
 (D4[K:bass] [D,C]2 | [G,B,]4) z2 |[K:treble] (^F4 C2 | B,2 E2 G2) | (^G,4 F2 | A,2 C2 _E2) | %18
 (.D2 z2[K:bass] .C2 | [G,B,]2) z2 z2 |!p! (G,2 G,2 A,2 | B,4 ^C2 | D4 C2 | B,4) z2 | %24
 (G,2 G,2 A,2 | B,4 ^C2 | D4 C2 | B,4) z2 | (!tenuto!E2 !tenuto!E2 !tenuto!E2 | D4 B,2) | %30
 (D2 C2 D2 | C4 A,2) | (B,4 A,2 | G,4) z2 | (!tenuto!E2 !tenuto!E2 !tenuto!E2 | D4 B,2) | %36
 (D2 C2 D2 | C4 A,2) | (B,4 A,2 | G,4) z2 ||!p! .[E,G,]4- .[E,G,]2 | .[E,G,]4- .[E,G,]2 | %42
 .[E,G,]4- .[E,G,]2 | .[E,G,]4- .[E,G,]2 | .[E,G,]4- .[E,G,]2 | .[E,G,]4- .[E,G,]2 | %46
 .[E,^F,A,]4- .[E,F,A,]2 |!>(! (A,4 .[E,G,]2)!>)! | .[E,G,]4- .[E,G,]2 | .[E,G,]4- .[E,G,]2 | %50
 (.[D,E,G,]4 .[D,^F,A,]2) |!>(! ([D,A,]4!>)! G,2) | %52
[K:treble] !tenuto![CE]2 !tenuto![CE]2 !tenuto![C^F]2 | ([B,^F]4 E2) | %54
 !tenuto![A,E]2 !tenuto![A,E]2 !tenuto![B,E]2 | ([CE]4 E2) | (D4[K:bass] [D,C]2) | [G,B,]2 z2 z2 | %58
[K:treble] !tenuto![CE]2 !tenuto![CE]2 !tenuto![C^F]2 | ([B,^F]4 E2) | %60
!<(! !tenuto![A,E]2 !tenuto![A,E]2 !tenuto![B,E]2!<)! | ([CE]4 E2) | (D4[K:bass] [D,C]2) | %63
 [G,B,]2 z2 z2 ||[M:2/4] z4 | !tenuto!G,2 .[^F,G,].[E,G,] | !tenuto![D,^F,]2 .[D,E,].[D,F,] | %67
 !tenuto!G,2 .B,.G, | z4 | !tenuto!G,2 .[^F,G,].[E,G,] | !tenuto![D,A,]2 .C,.D, | %71
 !tenuto!E,2 .G,.E, | [A,^F]2 .[G,F].[A,F] | [B,F]2 !tenuto![DF]2 | !tenuto![G,E]2 .[^F,E].[G,E] | %75
 [A,E]2 !tenuto![CE]2 | !tenuto![B,^D]2 !tenuto![D,C]2 |!<(! !tenuto![G,B,]2 .^F,.G,!<)! | %78
 !tenuto![A,^F]2 .[G,F].[A,F] | [B,F]2 !tenuto![DF]2 | .!tenuto![G,E]2 .[^F,E].[G,E] | %81
 !tenuto![A,E]2 !tenuto![CE]2 | [B,^D]4 | [D,C]4 | G,,4 |] %85

